X: 38699
T: Strawberry Blossom, The
R: reel
M: 4/4
K: Dmajor
|ag|fAdf edBg|fAdf g2 ag|fAdf edBc|dBAF EFDg|
fAdf edBg|fAdf g2 ag|fAdf edBc|dBAF EFDg||
faaf dcde|faaf g3e|faab afdf|gfed Bcde|
faaf dcde|faaf g2fg|bgaf gfed|(3Bcd ef g2 ag||

